svgs/thin/lamp-floor.svg

<svg xmlns="http://www.w3.org/2000/svg" viewBox="0 0 384 512"><!--! Font Awesome Pro 6.3.0 by @fontawesome - https://fontawesome.com License - https://fontawesome.com/license (Commercial License) Copyright 2023 Fonticons, Inc. --><path d="M381.4 179.4l-68.63-160C307.8 7.625 296.3 0 283.4 0H100.6c-12.88 0-24.38 7.625-29.38 19.38l-68.63 160C-1.644 189.3-.6436 200.6 5.231 209.6C11.23 218.6 21.23 224 31.98 224H184v272h-112C67.59 496 64 499.6 64 504S67.59 512 72 512h240c4.406 0 8-3.594 8-8s-3.594-8-8-8h-112V224h152c10.75 0 20.75-5.375 26.75-14.38C384.6 200.6 385.6 189.3 381.4 179.4zM365.5 200.7C362.4 205.3 357.4 208 352 208H31.98c-5.389 0-10.41-2.711-13.36-7.121C15.66 196.3 15.17 190.7 17.31 185.7l68.65-160C88.45 19.79 94.21 16 100.6 16h182.8c6.41 0 12.16 3.785 14.67 9.684l68.64 160C368.8 190.7 368.3 196.3 365.5 200.7z"/></svg>

<svg xmlns="http://www.w3.org/2000/svg" viewBox="0 0 384 512"><!-- Font Awesome Pro 6.0.0-alpha2 by @fontawesome - https://fontawesome.com License - https://fontawesome.com/license (Commercial License) --><path d="M381.395 179.375L312.762 19.375C307.762 7.625 296.26 0 283.385 0H100.616C87.741 0 76.239 7.625 71.239 19.375L2.606 179.375C-1.644 189.25 -0.644 200.625 5.231 209.625C11.233 218.625 21.233 224 31.985 224H184V496H72C67.594 496 64 499.594 64 504S67.594 512 72 512H312C316.407 512 320 508.406 320 504S316.407 496 312 496H200V224H352.016C362.768 224 372.768 218.625 378.77 209.625C384.645 200.625 385.645 189.25 381.395 179.375ZM365.459 200.746C362.43 205.289 357.405 208 352.016 208H31.985C26.596 208 21.571 205.289 18.629 200.879C15.662 196.336 15.168 190.66 17.311 185.684L85.961 25.641C88.453 19.785 94.205 16 100.616 16H283.385C289.795 16 295.547 19.785 298.057 25.684L366.698 185.699C368.832 190.66 368.338 196.336 365.459 200.746Z"/></svg>
